X: 21413
T: THE NEW TARIFF HUNT -- Reel
R: reel
B: K\"ohler's Violin Repository, v.2, 1885 p.141 #3
F: http://www.archive.org/details/klersviolinrepos02rugg
Z: 2012 John Chambers <jc:trillian.mit.edu>
M: C|
L: 1/8
K: Bb
uF |\
(Bc).d.e f2gf | e2ge d2fd | (Bc)df (fg)fd | (ec)dB (BA)GF |
(Bc)de f2gf | e2ge d2fd | (cB)cd (eg)fd | (ec)BG B3 |] uf |
d2fd B2dB | G2cB (BA)GF | d2fd B2dB | AFGA {cBA}B2(Bf) |
d2fd B2dB | (Gc)dB (BA)GF | (Bc)de (fg)fd | (ec)BA B3 "^D.C.""_Fine."|]

%%sep 2 1 500

